svg/Pictogram/pictograms-aem-0077-machine_rollover-no_rops.svg

<?xml version="1.0" encoding="ISO-8859-1" standalone="yes"?>
<svg height="304.014" width="304.015">
  <metadata>
    <rdf:RDF xmlns:cc="http://web.resource.org/cc/" xmlns:dc="http://purl.org/dc/elements/1.1/" xmlns:rdf="http://www.w3.org/1999/02/22-rdf-syntax-ns#">
      <cc:Work rdf:about="">
        <dc:title></dc:title>
        <dc:description></dc:description>
        <dc:subject>
          <rdf:Bag>
            <rdf:li></rdf:li>
          </rdf:Bag>
        </dc:subject>
        <dc:publisher>
          <cc:Agent rdf:about="http://www.unece.org/trans/danger/publi/ghs/pictograms.html">
            <dc:title>Source: UNECE GHS of Classification and Labeling of Chemicals, Source: AEM Pictorial Database, Source: AEM Pictorial Database, Source: AEM Pictorial Database, Source: AEM Pictorial Database</dc:title>
          </cc:Agent>
        </dc:publisher>
        <dc:creator>
          <cc:Agent>
            <dc:title></dc:title>
          </cc:Agent>
        </dc:creator>
        <dc:rights>
          <cc:Agent>
            <dc:title></dc:title>
          </cc:Agent>
        </dc:rights>
        <dc:date></dc:date>
        <dc:format>image/svg+xml</dc:format>
        <dc:type rdf:resource="http://purl.org/dc/dcmitype/StillImage"/>
        <cc:license rdf:resource="http://en.wikipedia.org/wiki/Public_domain"/>
        <dc:language>en</dc:language>
      </cc:Work>
    </rdf:RDF>
  </metadata>
  <defs><marker id="ArrowEnd" markerHeight="3" markerUnits="strokeWidth" markerWidth="4" orient="auto" refX="0" refY="5" viewBox="0 0 10 10"><path d="M 0 0 L 10 5 L 0 10 z"/></marker><marker id="ArrowStart" markerHeight="3" markerUnits="strokeWidth" markerWidth="4" orient="auto" refX="10" refY="5" viewBox="0 0 10 10"><path d="M 10 0 L 0 5 L 10 10 z"/></marker> </defs>
  <g id="g2958" transform="matrix(1.3532768,0,0,1.3532781,-53.207834,-52.192858)">
    <path d="M 112.116 173.565C 114.171 171.729 115.495 169.381 116.081 166.889" style="stroke:none; fill-rule:evenodd; fill:#ffffff"/>
    <path d="M 110.202 171.424C 114.347 167.725 114.71 161.366 111.007 157.217C 107.308 153.073 100.948 152.713 96.8044 156.413C 92.6594 160.112 92.3004 166.471 95.9994 170.62C 99.6984 174.764 106.058 175.124 110.202 171.424" style="stroke:none; fill-rule:evenodd; fill:#000000"/>
    <path d="M 184.718 151.272C 185.065 151.135 189.659 149.323 189.78 149.35C 189.909 149.377 213.534 154.229 213.534 154.229L 207.854 165.03C 206.116 167.194 204.073 167.686 200.503 167.377L 177.206 162.331L 176.741 164.827L 180.069 165.561L 183.659 171.819L 183.069 173.553L 201.222 171.389C 204.374 171.01 207.233 173.264 207.612 176.416C 207.987 179.569 205.737 182.428 202.585 182.803L 178.952 185.624L 175.659 195.276C 174.804 197.366 171.858 197.913 169.687 197.444L 159.69 195.28L 144.823 207.553C 143.397 208.729 141.573 209.096 139.901 208.721C 138.792 208.725 137.671 208.413 136.683 207.748L 109.604 189.663L 81.7304 184.186C 80.2494 183.893 79.0264 183.049 78.2024 181.916L 65.5344 164.268C 59.8314 155.905 60.4214 152.315 62.9994 150.463C 65.5774 148.612 69.1714 149.202 71.0224 151.78L 86.5544 173.416L 98.1754 175.702C 100.011 176.53 102.007 176.92 103.995 176.846C 104.261 176.834 104.522 176.807 104.788 176.784C 107.417 176.522 109.991 175.463 112.116 173.569C 114.171 171.733 115.495 169.385 116.081 166.893C 116.101 166.897 116.116 166.905 116.136 166.909L 118.991 150.811L 96.1084 146.073C 92.9994 145.428 91.0034 142.385 91.6444 139.28C 92.2884 136.17 95.3314 134.17 98.4404 134.815L 119.647 139.206L 119.304 133.823L 142.46 138.897L 146.917 143.139L 184.718 151.276L 184.718 151.272zM 149.226 156.268L 130.425 152.198L 126.659 173.401L 137.948 180.944L 139.894 162.206L 145.339 158.038L 148.745 158.776L 149.226 156.268zM 174.358 161.713L 152.007 156.87L 151.542 159.381L 173.944 164.233L 174.358 161.713zM 177.726 168.295L 146.151 161.491L 142.78 164.217L 140.452 184.823C 140.425 187.291 140.663 188.315 144.632 188.897L 169.011 194.37C 171.823 195.319 173.155 194.323 173.913 192.006L 180.284 172.362L 177.726 168.295zM 140.987 141.577L 122.269 137.295L 122.604 144.131C 122.632 146.963 123.366 147.834 125.491 148.53L 199.202 164.467C 203.218 165.229 205.136 164.467 206.233 162.709C 206.202 162.834 209.616 156.549 209.616 156.549L 189.757 152.362L 184.104 154.245L 146.28 146.03L 140.987 141.573" style="stroke:none; fill-rule:evenodd; fill:#000000"/>
    <path d="M 249.382 170.901L 248.522 168.342L 54.6324 245.791L 55.4874 248.346L 249.382 170.901" style="stroke:none; fill-rule:evenodd; fill:#000000"/>
    <path d="M 146.917 143.135L 152.093 119.686L 146.983 118.538L 143.753 132.94C 143.382 134.584 141.749 135.624 140.101 135.252L 120.28 130.811C 118.632 130.444 117.624 128.815 117.991 127.166L 127.104 86.3234C 127.476 84.6784 129.132 83.6434 130.776 84.0144L 150.604 88.4364C 152.253 88.8034 153.284 90.4594 152.917 92.1084L 149.647 106.666L 197.612 116.928L 200.718 103.01C 201.089 101.366 202.741 100.331 204.39 100.702L 224.218 105.124C 225.866 105.491 226.897 107.147 226.53 108.795L 217.366 149.624C 216.995 151.272 215.362 152.307 213.714 151.94L 193.894 147.498C 192.245 147.127 191.237 145.498 191.604 143.85L 194.835 129.377L 189.679 128.276L 184.718 151.272L 146.917 143.135zM 131.28 87.2884C 130.48 87.1084 129.683 87.6124 129.503 88.4134L 120.991 126.448C 120.812 127.248 121.315 128.045 122.116 128.225L 139.651 132.151C 140.452 132.331 141.249 131.823 141.429 131.022L 149.94 92.9914C 150.12 92.1864 149.616 91.3894 148.815 91.2094L 131.28 87.2884zM 155.565 117.358L 149.765 143.807L 181.796 150.655L 187.448 124.913L 195.577 126.678L 196.854 120.088L 148.718 109.663L 147.589 115.53L 155.565 117.358zM 205.354 104.135C 204.554 103.959 203.757 104.463 203.577 105.264L 195.065 143.299C 194.886 144.1 195.39 144.897 196.194 145.077L 213.144 148.924C 213.948 149.104 214.741 148.596 214.925 147.795L 223.468 109.709C 223.647 108.909 223.14 108.112 222.339 107.932L 205.358 104.135" style="stroke:none; fill-rule:evenodd; fill:#000000"/>
    <path d="M 29.6204 265.393L 2.62042 265.393" style="stroke:#000000; stroke-width:0.5; fill:none"/>
    <path d="M 38.6204 274.393L 38.6204 301.393" style="stroke:#000000; stroke-width:0.5; fill:none"/>
    <path d="M 29.6204 38.6204L 2.62042 38.6204" style="stroke:#000000; stroke-width:0.5; fill:none"/>
    <path d="M 38.6204 29.6204L 38.6204 2.62042" style="stroke:#000000; stroke-width:0.5; fill:none"/>
    <path d="M 274.394 38.6204L 301.394 38.6204" style="stroke:#000000; stroke-width:0.5; fill:none"/>
    <path d="M 265.394 29.6204L 265.394 2.62042" style="stroke:#000000; stroke-width:0.5; fill:none"/>
    <path d="M 274.394 265.393L 301.394 265.393" style="stroke:#000000; stroke-width:0.5; fill:none"/>
    <path d="M 265.394 274.393L 265.394 301.393" style="stroke:#000000; stroke-width:0.5; fill:none"/>
  </g>
</svg>

<svg viewBox="0 0 304.01 304.01"><g transform="matrix(1.35328 0 0 1.35328-53.21-52.19)" fill-rule="evenodd"><path d="m112.12 173.56c2.055-1.836 3.379-4.184 3.965-6.676" fill="#fff"/><path d="m110.2 171.42c4.145-3.699 4.508-10.06.805-14.207-3.699-4.144-10.06-4.504-14.203-.804-4.145 3.699-4.504 10.06-.805 14.207 3.699 4.144 10.06 4.504 14.203.804"/><path d="m184.72 151.27c.347-.137 4.941-1.949 5.062-1.922.129.027 23.754 4.879 23.754 4.879l-5.68 10.801c-1.738 2.164-3.781 2.656-7.351 2.347l-23.297-5.05-.465 2.496 3.328.734 3.59 6.258-.59 1.734 18.15-2.164c3.152-.379 6.01 1.875 6.39 5.03.375 3.153-1.875 6.01-5.03 6.387l-23.633 2.821-3.293 9.652c-.855 2.09-3.801 2.637-5.972 2.168l-9.997-2.164-14.867 12.273c-1.426 1.176-3.25 1.543-4.922 1.168-1.109.004-2.23-.308-3.218-.973l-27.08-18.08-27.874-5.477c-1.481-.293-2.704-1.137-3.528-2.27l-12.668-17.648c-5.703-8.363-5.113-11.953-2.535-13.805 2.578-1.851 6.172-1.261 8.02 1.317l15.532 21.636 11.621 2.286c1.836.828 3.832 1.218 5.82 1.144.266-.012.527-.039.793-.062 2.629-.262 5.203-1.321 7.328-3.215 2.055-1.836 3.379-4.184 3.965-6.676.02.004.035.012.055.016l2.855-16.1-22.883-4.738c-3.109-.645-5.105-3.688-4.464-6.793.644-3.11 3.687-5.11 6.796-4.465l21.21 4.391-.343-5.383 23.16 5.074 4.457 4.242 37.801 8.137v-.004m-35.492 4.996l-18.801-4.07-3.766 21.2 11.289 7.543 1.946-18.738 5.445-4.168 3.406.738.481-2.508m25.13 5.445l-22.351-4.843-.465 2.511 22.402 4.852.414-2.52m3.368 6.582l-31.575-6.804-3.371 2.726-2.328 20.606c-.027 2.468.211 3.492 4.18 4.074l24.379 5.473c2.812.949 4.144-.047 4.902-2.364l6.371-19.644-2.558-4.067m-36.739-26.718l-18.718-4.282.335 6.836c.028 2.832.762 3.703 2.887 4.399l73.71 15.937c4.02.762 5.934 0 7.03-1.758-.031.125 3.383-6.16 3.383-6.16l-19.859-4.187-5.653 1.883-37.824-8.215-5.293-4.457"/><path d="m249.38 170.9l-.86-2.559-193.89 77.45.855 2.555 193.89-77.44"/><path d="m146.92 143.13l5.176-23.449-5.11-1.148-3.23 14.402c-.371 1.644-2 2.684-3.652 2.312l-19.821-4.441c-1.648-.367-2.656-1.996-2.289-3.645l9.113-40.843c.372-1.645 2.028-2.68 3.672-2.309l19.828 4.422c1.649.367 2.68 2.023 2.313 3.672l-3.27 14.558 47.965 10.262 3.106-13.918c.371-1.644 2.023-2.679 3.672-2.308l19.828 4.422c1.648.367 2.679 2.023 2.312 3.671l-9.164 40.829c-.371 1.648-2 2.683-3.652 2.316l-19.82-4.442c-1.649-.371-2.657-2-2.29-3.648l3.231-14.473-5.156-1.101-4.961 22.996-37.801-8.137m-15.637-55.847c-.8-.18-1.597.324-1.777 1.125l-8.512 38.03c-.179.8.324 1.597 1.125 1.777l17.535 3.926c.801.18 1.598-.328 1.778-1.129l8.511-38.03c.18-.805-.324-1.602-1.125-1.782l-17.535-3.921m24.285 30.07l-5.8 26.449 32.03 6.848 5.652-25.742 8.129 1.765 1.277-6.59-48.14-10.425-1.129 5.867 7.976 1.828m49.789-13.223c-.8-.176-1.597.328-1.777 1.129l-8.512 38.04c-.179.801.325 1.598 1.129 1.778l16.95 3.847c.804.18 1.597-.328 1.781-1.129l8.543-38.09c.179-.8-.328-1.597-1.129-1.777l-16.981-3.797"/></g></svg>
